X: 19741
T: Jenny Picking Cockles
R: reel
M: 4/4
K: Gmajor
|:Addc AGEF|GEcE dEcE|Addc AGEF|GEcE ED D2|
Addc AGEF|GE E2 c2 cd|edcA AGEF|GEcE ED D2:|
|:f3d e3d|cAAB cdeg|f3d ed (3B^cd|eaag fd d2|
f3d e3d|^cAAB =c3d|edcA AGEF|GEcE ED D2:|

